!!!COM: Mozart
!!!OTL: Sechs Variationen in F uber die Arie 'Salve tu, Domine' aus der Oper 'I filosofi immaginarii' 
!!!Variation: Variation 1 b
**function	**harm	**kern	**kern
*	*	*clefF4	*clefG2
*	*	*k[b-]	*k[b-]
*M3/4	*M3/4	*M3/4	*M3/4
*F:	*F:	*F:	*F:
4T	B-:maj	4FF	16r
.	.	.	(16fLL
.	.	.	16e
.	.	.	16fJJ
4T	B-:7/b7	4F 4e-	16f#LL
.	.	.	16g
.	.	.	16g#
.	.	.	16aJJ)
=35	=35	=35	=35
*	*	*^	*
2P	E-:maj/5	2d	2.F	(16b-LL
.	.	.	.	16cc
.	.	.	.	16b-
.	.	.	.	16aJJ
.	.	.	.	16b-LL
.	.	.	.	16cc
.	.	.	.	16dd
.	.	.	.	16ccJJ
4P	F:7/3	4e	.	16eeLL
.	.	.	.	16dd
.	.	.	.	16cc
.	.	.	.	16b-JJ)
*	*	*v	*v	*
=36	=36	=36	=36
2.P	B-:maj	4f	(16ccLL
.	.	.	16b-
.	.	.	16a
.	.	.	16b-JJ
.	.	16r	16aLL
.	.	(16FLL	16a
.	.	16E	16g#
.	.	16FJJ	16aJJ
.	.	16G-LL	16b-LL
.	.	16G	16b
.	.	16A-	16cc
.	.	16AJJ)	16cc#JJ)
=37	=37	=37	=37
2.P	E-:maj	(16B-LL	(16ddLL
.	.	16c	16ee
.	.	16B-	16dd
.	.	16AJJ	16cc#JJ
.	.	16B-LL	16ddLL
.	.	16c	16ee
.	.	16d	16ff
.	.	16cJJ	16eeJJ
.	.	16eLL	16ggLL
.	.	16d	16ff
.	.	16c	16ee
.	.	16B-JJ)	16ddJJ)
=38	=38	=38	=38
*	*	*^	*
2.P	B-:maj	(16dLL	2F	16ffLL
.	.	16B-	.	16dd
.	.	16d	.	16ff
.	.	16B-JJ)	.	16ddJJ
.	.	4A	.	4cc
.	.	4r	4r	4r
*	*	*v	*v	*
=39	=39	=39	=39
*	*	*	*^
4D	F:maj	16CCLL	(8.ccL	4e 4g
.	.	16C	.	.
.	.	16BB	.	.
.	.	16CJJ	16eeJk)	.
4D	F:maj/3	16EELL	8g'L	4r
.	.	16E	.	.
.	.	16D#	8g'J	.
.	.	16EJJ	.	.
4D	C:7	16GGLL	8r	4r
.	.	16G	.	.
.	.	16F#	8f 8b	.
.	.	16GJJ	.	.
=40	=40	=40	=40	=40
4D	F:maj	16CLL	(8.ccL	4e 4g
.	.	16c	.	.
.	.	16B	.	.
.	.	16cJJ	16eeJk)	.
4D	F:maj/3	16ELL	8g'L	4r
.	.	16e	.	.
.	.	16d#	8g'J	.
.	.	16eJJ	.	.
4D	C:7	16GGLL	8r	4r
.	.	16G	.	.
.	.	16F#	8f 8b	.
.	.	16GJJ	.	.
=41	=41	=41	=41	=41
4D	F:maj	16CLL	(8.ccL	4e
.	.	16c	.	.
.	.	16B	.	.
.	.	16cJJ	32eeLL	.
.	.	.	32ggJJJ)	.
*	*	*	*v	*v
4D	F:maj/3	16EELL	8g'L
.	.	16E	.
.	.	16D#	8g'J
.	.	16EJJ	.
4D	C:7	16GGLL	8r
.	.	16G	.
.	.	16F#	8f 8b
.	.	16GJJ	.
=42	=42	=42	=42
2.D	F:7	4.CC; 4.C;	4.e; 4.cc;
.	.	(8A'	16r
.	.	.	(16cc#'
.	.	8B-'L	16r
.	.	.	16dd'
.	.	8A'J)	16r
.	.	.	16cc')
=43	=43	=43	=43
2.D	F:7/3	8G'L	16r
.	.	.	16b-'
.	.	8F'J	16r
.	.	.	16a'
.	.	8E'L	16r
.	.	.	16g'
.	.	8G'J	16r
.	.	.	16b-'
.	.	8F'L	16r
.	.	.	16a'
.	.	8E'J	16r
.	.	.	16g'
=44	=44	=44	=44
2.T	B-:maj	4F	8BL 8e
.	.	.	8AJ 8f
.	.	4FF	4A 4f
.	.	4r	4r
*-	*-	*-	*-
!!!EMD: Edited in humdrumR 0.7.0.3 on 2024-01-19
